X: 1058
T: The Spinner's Lilt
R:double jig
N:"collected by J.O'Neill"
B:O'Neill's 1058
Z:Transcribed by henrik.norbeck@mailbox.swipnet.se
M:6/8
L:1/8
K:D
D2F FGA|ABA AGF|D2F FGA|BAB gec|
d2F FGA|ABA AGF|GBG FAF|EFA B2A:|
d2f faf|d2f ecA|d2f faf|ede f2g|
agf bag|fed cBA|dcB AGF|EFA B2A:|


